packages/foundations/assets/icons/functional/images/file/document_check_14.svg

<svg width="14" height="14" viewBox="0 0 14 14" fill="none" xmlns="http://www.w3.org/2000/svg">
<g clip-path="url(#clip0_185_912)">
<path fill-rule="evenodd" clip-rule="evenodd" d="M7.00002 1.39999C7.17502 1.39999 7.35002 1.46579 7.48092 1.59669L9.60332 3.69669C9.73422 3.82829 9.80002 4.00329 9.80002 4.19999V4.89999H6.97832C6.58422 4.89999 6.27832 4.59339 6.27832 4.19999V2.79999H2.80002V11.2H5.60002V12.6H2.10002C1.70592 12.6 1.40002 12.2934 1.40002 11.9V2.09999C1.40002 1.70589 1.70592 1.39999 2.10002 1.39999H7.00002ZM9.09995 5.59999C11.025 5.59999 12.6 7.17499 12.6 9.09999C12.6 11.025 11.025 12.6 9.09995 12.6C7.17495 12.6 5.59995 11.025 5.59995 9.09999C5.59995 7.17499 7.17495 5.59999 9.09995 5.59999ZM10.0267 7.97298L8.84547 9.17607L8.30336 8.61211L7.47211 9.44336L8.84547 10.8167L10.858 8.80416L10.0267 7.97298Z" fill="#1A1C1F"/>
</g>
<defs>
<clipPath id="clip0_185_912">
<rect width="14" height="14" fill="white"/>
</clipPath>
</defs>
</svg>

<svg xmlns="http://www.w3.org/2000/svg" width="14" height="14" fill="none"><g clip-path="url(#a)"><path fill="#1A1C1F" fill-rule="evenodd" d="M7 1.4c.175 0 .35.066.48.197l2.123 2.1c.131.131.197.306.197.503v.7H6.978a.69.69 0 0 1-.7-.7V2.8H2.8v8.4h2.8v1.4H2.1a.69.69 0 0 1-.7-.7V2.1c0-.394.306-.7.7-.7zm2.1 4.2a3.51 3.51 0 0 1 3.5 3.5 3.51 3.51 0 0 1-3.5 3.5 3.51 3.51 0 0 1-3.5-3.5 3.51 3.51 0 0 1 3.5-3.5m.927 2.373L8.845 9.176l-.542-.564-.83.831 1.372 1.374 2.013-2.013z" clip-rule="evenodd"/></g><defs><clipPath id="a"><path fill="#fff" d="M0 0h14v14H0z"/></clipPath></defs></svg>
